X: 5627
T: Butterfly
R: reel
M: 4/4
K: Eminor
B3 A GE E2|EBEB dBAd|(3Bcd BA GABe|dBAd BE E2:|
(3Bcd ef gefd|(3Bcd ge dBAd|(3Bcd ef g2 ga|bage dBAd:|

